public/images/well-documented.svg

<svg width="126" height="126" viewBox="0 0 126 126" fill="none" xmlns="http://www.w3.org/2000/svg">
<path d="M23 39.8372C35.7025 17.8357 63.8357 10.2975 85.8372 23C107.839 35.7025 115.377 63.8357 102.674 85.8372C89.9718 107.839 61.8386 115.377 39.8372 102.674C17.8357 89.9718 10.2975 61.8386 23 39.8372Z" fill="#FFE5D9"/>
<g clip-path="url(#clip0)">
<path d="M80.1997 81.0205C78.3269 80.2698 76.5529 78.8634 75.0693 76.9532C73.5561 75.0049 72.3365 72.5223 71.5423 69.7737L70.6334 66.6283C70.5179 66.2284 70.1518 65.9531 69.7356 65.9531C69.3193 65.9531 68.9533 66.2284 68.8378 66.6283L67.9289 69.7736C67.1347 72.5223 65.9151 75.005 64.4019 76.9532C62.9183 78.8633 61.1443 80.2697 59.2714 81.0205C58.9219 81.1606 58.6906 81.4968 58.6847 81.8733C58.6788 82.2499 58.8994 82.5931 59.2444 82.7441L59.5349 82.8713C63.253 84.4988 66.2914 88.5069 67.8712 93.868L68.8391 97.1526C68.9562 97.5501 69.3211 97.823 69.7356 97.823C70.15 97.823 70.5149 97.5501 70.6321 97.1526L71.6 93.868C73.1797 88.5069 76.2182 84.4988 79.9364 82.8713L80.2268 82.7441C80.5717 82.5931 80.7924 82.2498 80.7864 81.8733C80.7805 81.4968 80.5493 81.1606 80.1997 81.0205ZM69.807 93.3396L69.7356 93.582L69.6642 93.3396C68.1261 88.1197 65.2673 84.0397 61.697 81.891C63.2239 80.972 64.6463 79.6857 65.878 78.0997C67.5352 75.9661 68.8653 73.2665 69.7245 70.2924L69.7356 70.2543L69.7467 70.2924C70.6059 73.2664 71.936 75.9661 73.5931 78.0997C74.825 79.6857 76.2473 80.972 77.7741 81.891C74.204 84.0397 71.3452 88.1197 69.807 93.3396Z" fill="#FF8F8F"/>
<path d="M50.056 75.1503L50.2016 75.2139C51.9401 75.9749 53.3694 77.8777 54.1228 80.4343L54.6082 82.0817C54.7253 82.4793 55.0902 82.7522 55.5047 82.7522C55.919 82.7522 56.284 82.4793 56.4012 82.0818L56.8866 80.4344C57.64 77.8777 59.0692 75.9749 60.8077 75.214L60.9534 75.1503C61.2984 74.9993 61.5191 74.656 61.5132 74.2794C61.5073 73.9029 61.276 73.5667 60.9265 73.4266C59.1378 72.7096 57.617 70.7141 56.8584 68.0887L56.4025 66.5111C56.2869 66.1112 55.9209 65.8359 55.5046 65.8359C55.0883 65.8359 54.7222 66.1113 54.6067 66.5111L54.151 68.0887C53.3924 70.7141 51.8716 72.7096 50.0829 73.4266C49.7334 73.5667 49.5021 73.903 49.4962 74.2794C49.4903 74.656 49.711 74.9993 50.056 75.1503ZM55.5046 69.9009C56.2557 71.7863 57.3617 73.3038 58.7002 74.2981C57.362 75.2989 56.2532 76.8266 55.5046 78.7121C54.7561 76.8266 53.6473 75.2989 52.3091 74.2981C53.6476 73.3038 54.7535 71.7863 55.5046 69.9009Z" fill="#FF8F8F"/>
<path d="M57.2292 90.8015C56.0654 90.335 55.07 89.0158 54.5663 87.2728L54.2493 86.1752C54.1337 85.7753 53.7676 85.5 53.3514 85.5C52.9352 85.5 52.5691 85.7753 52.4536 86.1751L52.1364 87.2728C51.6328 89.0158 50.6373 90.3349 49.4736 90.8015C49.124 90.9416 48.8927 91.2779 48.8868 91.6543C48.8809 92.0309 49.1016 92.3742 49.4466 92.5251L49.5479 92.5694C50.6636 93.0579 51.6241 94.3484 52.1171 96.0214L52.4549 97.1675C52.5721 97.565 52.9369 97.8379 53.3514 97.8379C53.7658 97.8379 54.1307 97.565 54.2479 97.1675L54.5856 96.0214C55.0786 94.3483 56.0391 93.058 57.1548 92.5696L57.2561 92.5252C57.6012 92.3742 57.8219 92.0309 57.8159 91.6544C57.8101 91.2778 57.5787 90.9416 57.2292 90.8015ZM53.3513 94.0358C52.8885 93.0777 52.2859 92.2728 51.5834 91.6725C52.2861 91.0756 52.8878 90.2751 53.3513 89.3177C53.8148 90.2751 54.4165 91.0756 55.1193 91.6725C54.4167 92.2727 53.8142 93.0775 53.3513 94.0358Z" fill="#FF8F8F"/>
</g>
<path d="M25.3656 71.1754L24.7615 69.1641L34.835 69.9977L35.0122 70.5877L30.2022 74.722L36.4982 75.5354L36.6754 76.1253L28.7282 82.3713L28.1241 80.3601L32.7614 76.8185L26.6745 76.1177L26.4933 75.5144L31.16 71.5839L25.3656 71.1754Z" fill="#FF8F8F"/>
<path d="M33.5423 66.7921L24.3169 66.2721L24.6667 60.066L26.372 60.1621L26.1286 64.4812L28.0016 64.5868L28.1805 61.4139L29.7879 61.5045L29.6091 64.6774L31.9434 64.809L32.1963 60.3221L33.9016 60.4182L33.5423 66.7921Z" fill="#FF8F8F"/>
<path d="M34.4601 58.6857L25.5961 56.0768L26.1297 54.2637L33.3552 56.3904L34.4976 52.509L36.1361 52.9912L34.4601 58.6857Z" fill="#FF8F8F"/>
<path d="M36.0285 51.6735L27.9266 47.2309L28.8354 45.5737L35.4396 49.1951L37.385 45.6475L38.8826 46.4687L36.0285 51.6735Z" fill="#FF8F8F"/>
<path d="M36.4703 43.6265L35.2425 42.629L37.4671 39.8908L38.695 40.8884L36.4703 43.6265Z" fill="#FF8F8F"/>
<path d="M42.1981 42.2766L36.5455 34.9674L38.9376 33.1174C40.0927 32.2005 41.3123 31.7942 42.5964 31.8984C43.8747 31.9953 44.9205 32.5847 45.7336 33.6667C46.5706 34.7184 46.8801 35.889 46.662 37.1785C46.444 38.468 45.7534 39.5508 44.5902 40.4267L42.1981 42.2766ZM42.6483 39.7693L43.5342 39.0842C44.2726 38.5132 44.7042 37.8431 44.8291 37.074C44.9483 36.2975 44.7367 35.5585 44.1943 34.8571C43.6461 34.1484 42.9936 33.7622 42.2365 33.6987C41.4795 33.6353 40.7245 33.8947 39.9714 34.4771L39.0854 35.1623L42.6483 39.7693Z" fill="#FF8F8F"/>
<path d="M46.9522 32.9077C46.4925 31.6745 46.5598 30.4464 47.1542 29.2237C47.7574 27.9977 48.6922 27.1738 49.9587 26.7517C51.2064 26.2769 52.4517 26.3232 53.6946 26.8907C54.9462 27.4549 55.7844 28.3599 56.2089 29.6057C56.6686 30.8389 56.5925 32.0701 55.9805 33.2991C55.3774 34.5251 54.4425 35.349 53.176 35.7711C51.9284 36.2459 50.6831 36.1996 49.4402 35.6322C48.2061 35.0616 47.3768 34.1535 46.9522 32.9077ZM54.376 30.2595C54.0813 29.4332 53.5701 28.8475 52.8426 28.5026C52.1207 28.1457 51.3598 28.1099 50.5599 28.3953C49.7511 28.6838 49.1787 29.1902 48.8425 29.9146C48.5063 30.639 48.4872 31.4187 48.7851 32.2539C49.083 33.089 49.5913 33.6806 50.31 34.0287C51.0288 34.3768 51.7925 34.4066 52.6013 34.1181C53.4012 33.8327 53.9693 33.3279 54.3055 32.6035C54.6504 31.876 54.6739 31.0946 54.376 30.2595Z" fill="#FF8F8F"/>
<path d="M58.041 29.3223C58.0086 27.9973 58.4774 26.8583 59.4475 25.9055C60.4176 24.9434 61.5747 24.4693 62.9189 24.4833C63.7962 24.4742 64.5916 24.6712 65.3052 25.0745C66.028 25.4683 66.5985 26.0224 67.0166 26.7368L65.5992 27.7596C64.9258 26.7305 64.0384 26.2218 62.9371 26.2332C62.0785 26.2421 61.3676 26.5389 60.8043 27.1235C60.2503 27.7079 59.9779 28.4388 59.9871 29.3161C59.9962 30.1934 60.2837 30.9137 60.8496 31.4772C61.4248 32.0406 62.1418 32.3178 63.0004 32.3089C64.1016 32.2974 64.9782 31.7703 65.6301 30.7274L67.0685 31.7205C66.6746 32.4433 66.1205 33.0138 65.4062 33.4319C64.6917 33.8407 63.8912 34.0497 63.0046 34.0589C61.6516 34.101 60.4803 33.6558 59.4905 32.7234C58.51 31.7816 58.0268 30.6479 58.041 29.3223Z" fill="#FF8F8F"/>
<path d="M69.0611 30.3913L70.7096 25.2302L72.51 25.8053L70.8189 31.0998C70.6172 31.731 70.6374 32.2813 70.8795 32.7505C71.1244 33.2108 71.5358 33.5333 72.1137 33.7179C72.7005 33.9053 73.2226 33.881 73.6801 33.645C74.1493 33.403 74.4847 32.9664 74.6864 32.3351L76.3775 27.0406L78.1779 27.6157L76.5294 32.7768C76.163 33.9237 75.5179 34.7317 74.594 35.2009C73.6701 35.67 72.6659 35.7314 71.5812 35.3849C70.4876 35.0356 69.7004 34.402 69.2195 33.4842C68.7476 32.5692 68.6947 31.5383 69.0611 30.3913Z" fill="#FF8F8F"/>
<path d="M89.0813 34.4849L89.5739 34.8547L83.9252 42.3782L82.4138 41.2434L85.3727 37.3025L81.7658 38.2359L81.2732 37.866L81.1631 34.142L78.2043 38.0829L76.6928 36.9481L82.3415 29.4246L82.8341 29.7944L82.9569 36.1365L89.0813 34.4849Z" fill="#FF8F8F"/>
<path d="M85.0543 43.94L92.5686 38.5629L96.1859 43.618L94.7969 44.6119L92.2795 41.0939L90.7539 42.1856L92.6033 44.7701L91.2939 45.707L89.4446 43.1225L87.5432 44.4831L90.1584 48.1378L88.7694 49.1317L85.0543 43.94Z" fill="#FF8F8F"/>
<path d="M99.6124 51.8351L100.254 53.6129L91.4043 56.806L91.1905 56.2134L94.7483 49.2442L89.5334 51.1258L88.8919 49.348L97.7415 46.1549L97.9506 46.7344L94.4238 53.7072L99.6124 51.8351Z" fill="#FF8F8F"/>
<path d="M91.8339 60.2319L99.3438 59.655L99.1176 56.7097L100.821 56.5789L101.419 64.3679L99.7159 64.4988L99.4885 61.5395L91.9787 62.1163L91.8339 60.2319Z" fill="#FF8F8F"/>
<path d="M91.9582 65.3474L101.067 66.8982L100.024 73.026L98.3401 72.7394L99.0662 68.4747L97.2168 68.1599L96.6834 71.2928L95.0962 71.0226L95.6296 67.8896L93.3248 67.4972L92.5705 71.9275L90.8867 71.6408L91.9582 65.3474Z" fill="#FF8F8F"/>
<path d="M90.053 73.0044L98.4136 76.9387L97.126 79.6748C96.515 81.0171 95.6141 81.9341 94.4234 82.4259C93.2411 82.9217 92.0416 82.8731 90.8251 82.2799C89.601 81.7246 88.7925 80.8232 88.3996 79.5758C88.0066 78.3285 88.1286 77.05 88.7654 75.7406L90.053 73.0044ZM90.7937 75.4417L90.3168 76.4551C89.9194 77.2996 89.8402 78.0927 90.0791 78.8344C90.3265 79.58 90.8514 80.1416 91.6537 80.5191C92.4644 80.9006 93.2212 80.9473 93.9241 80.6592C94.627 80.3711 95.1812 79.7963 95.5865 78.9349L96.0634 77.9215L90.7937 75.4417Z" fill="#FF8F8F"/>
<defs>
<clipPath id="clip0">
<rect width="32" height="32" fill="white" transform="translate(48.8369 65.8359)"/>
</clipPath>
</defs>
</svg>

<svg width="126" height="126" fill="none" xmlns="http://www.w3.org/2000/svg"><path d="M23 39.837C35.703 17.836 63.836 10.297 85.837 23c22.002 12.703 29.54 40.836 16.837 62.837-12.702 22.002-40.835 29.54-62.837 16.837C17.836 89.972 10.297 61.839 23 39.837z" fill="#FFE5D9"/><g clip-path="url(#clip0)" fill="#FF8F8F"><path d="M80.2 81.02c-1.873-.75-3.647-2.157-5.13-4.067-1.514-1.948-2.733-4.43-3.528-7.18l-.909-3.145a.935.935 0 00-1.795 0l-.91 3.146c-.793 2.748-2.013 5.231-3.526 7.18-1.484 1.91-3.258 3.316-5.13 4.067a.935.935 0 00-.028 1.723l.29.127c3.719 1.628 6.757 5.636 8.337 10.997l.968 3.285a.935.935 0 001.793 0l.968-3.285c1.58-5.361 4.618-9.37 8.336-10.997l.29-.127a.934.934 0 00-.026-1.724zM69.807 93.34l-.071.242-.072-.242c-1.538-5.22-4.397-9.3-7.967-11.449 1.527-.919 2.95-2.205 4.181-3.791 1.657-2.134 2.987-4.834 3.847-7.808l.01-.038.012.038c.859 2.974 2.189 5.674 3.846 7.808 1.232 1.586 2.654 2.872 4.181 3.791-3.57 2.149-6.429 6.229-7.967 11.449zM50.056 75.15l.146.064c1.738.76 3.167 2.664 3.92 5.22l.486 1.648a.934.934 0 001.793 0l.486-1.648c.753-2.556 2.182-4.46 3.92-5.22l.146-.064a.935.935 0 00-.027-1.723c-1.788-.717-3.309-2.713-4.068-5.338l-.455-1.578a.935.935 0 00-1.796 0l-.456 1.578c-.759 2.625-2.28 4.62-4.068 5.338a.935.935 0 00-.027 1.723zm5.449-5.25c.75 1.886 1.857 3.404 3.195 4.398-1.338 1-2.447 2.529-3.195 4.414-.749-1.885-1.858-3.413-3.196-4.414 1.339-.994 2.445-2.512 3.196-4.397zm1.725 20.902c-1.165-.467-2.16-1.786-2.664-3.53l-.317-1.097a.935.935 0 00-1.795 0l-.318 1.098c-.503 1.743-1.499 3.062-2.662 3.529a.935.935 0 00-.027 1.723l.1.044c1.117.489 2.077 1.78 2.57 3.452l.338 1.147a.935.935 0 001.793 0l.338-1.147c.493-1.673 1.453-2.963 2.569-3.451l.101-.045a.934.934 0 00-.027-1.724zm-3.879 3.234c-.462-.958-1.065-1.763-1.768-2.364.703-.596 1.305-1.397 1.768-2.354.464.957 1.066 1.758 1.768 2.355-.702.6-1.305 1.404-1.768 2.363z"/></g><path d="M25.366 71.175l-.604-2.01 10.073.833.177.59-4.81 4.134 6.296.813.177.59-7.947 6.246-.604-2.01 4.637-3.543-6.087-.7-.18-.604 4.666-3.93-5.794-.409zm8.176-4.383l-9.225-.52.35-6.206 1.705.096-.243 4.32 1.873.105.178-3.173 1.608.09-.179 3.173 2.334.132.253-4.487 1.706.096-.36 6.374zm.918-8.106l-8.864-2.61.534-1.812 7.225 2.126 1.143-3.881 1.638.482-1.676 5.695zm1.569-7.013l-8.102-4.442.908-1.657 6.605 3.621 1.945-3.547 1.498.82-2.855 5.205zm.441-8.046l-1.227-.998 2.224-2.738 1.228.997-2.225 2.739zm5.728-1.35l-5.653-7.31 2.393-1.85c1.155-.916 2.374-1.323 3.658-1.219 1.279.097 2.325.687 3.138 1.769.837 1.051 1.146 2.222.928 3.511-.218 1.29-.909 2.373-2.072 3.249l-2.392 1.85zm.45-2.508l.886-.685c.739-.57 1.17-1.24 1.295-2.01.12-.776-.092-1.515-.635-2.217-.548-.709-1.2-1.095-1.958-1.158-.756-.064-1.511.196-2.265.778l-.886.685 3.563 4.607zm4.304-6.861c-.46-1.234-.392-2.462.202-3.684.603-1.226 1.538-2.05 2.805-2.472 1.247-.475 2.493-.429 3.736.139 1.251.564 2.09 1.469 2.514 2.715.46 1.233.383 2.464-.229 3.693-.603 1.226-1.537 2.05-2.804 2.472-1.248.475-2.493.429-3.736-.139-1.234-.57-2.063-1.478-2.488-2.724zm7.424-2.649c-.295-.826-.806-1.412-1.533-1.756-.722-.357-1.483-.393-2.283-.108-.809.289-1.381.795-1.718 1.52-.336.724-.355 1.504-.057 2.339s.806 1.427 1.525 1.775c.719.348 1.482.378 2.291.09.8-.286 1.368-.791 1.705-1.516.344-.727.368-1.508.07-2.344zm3.665-.937c-.032-1.325.436-2.464 1.407-3.416.97-.963 2.127-1.437 3.47-1.423.878-.009 1.674.188 2.387.591a4.373 4.373 0 011.712 1.663l-1.418 1.023c-.673-1.03-1.56-1.538-2.662-1.527-.858.01-1.57.306-2.133.89-.554.585-.826 1.316-.817 2.193.01.877.297 1.598.863 2.161.575.564 1.292.84 2.15.832 1.102-.012 1.978-.539 2.63-1.582l1.439.994a4.374 4.374 0 01-1.663 1.71c-.714.41-1.515.619-2.401.628-1.353.042-2.525-.403-3.515-1.336-.98-.941-1.463-2.075-1.449-3.4zm11.02 1.069l1.649-5.16 1.8.574-1.691 5.295c-.202.631-.182 1.181.06 1.65.245.46.657.783 1.235.968.587.187 1.109.163 1.566-.073.47-.242.805-.679 1.006-1.31l1.691-5.294 1.8.575-1.648 5.16c-.366 1.148-1.011 1.956-1.935 2.425-.924.469-1.928.53-3.013.184-1.093-.35-1.88-.983-2.362-1.9-.471-.916-.524-1.947-.158-3.094zm20.02 4.094l.493.37-5.649 7.523-1.511-1.135 2.959-3.94-3.607.933-.493-.37-.11-3.724-2.959 3.94-1.511-1.134 5.648-7.523.493.37.123 6.341 6.124-1.651zm-4.027 9.455l7.515-5.377 3.617 5.055-1.39.994-2.517-3.518-1.525 1.092 1.85 2.584-1.31.937-1.85-2.584-1.9 1.36 2.614 3.655-1.389.994-3.715-5.192zm14.558 7.895l.642 1.778-8.85 3.193-.213-.593 3.557-6.969-5.215 1.882-.641-1.778 8.85-3.193.209.58-3.527 6.972 5.188-1.872zm-7.778 8.397l7.51-.577-.226-2.945 1.703-.131.598 7.789-1.703.13-.227-2.959-7.51.577-.145-1.884zm.124 5.115l9.109 1.551-1.043 6.128-1.684-.287.726-4.264-1.85-.315-.533 3.133-1.587-.27.534-3.133-2.305-.393-.755 4.43-1.683-.286 1.071-6.294zm-1.905 7.657l8.36 3.935-1.287 2.736c-.611 1.342-1.512 2.26-2.703 2.75-1.182.497-2.381.448-3.598-.145-1.224-.555-2.032-1.457-2.425-2.704-.393-1.247-.271-2.526.365-3.835l1.288-2.737zm.74 2.438l-.476 1.013c-.398.845-.477 1.638-.238 2.38.248.745.772 1.307 1.575 1.684.81.382 1.567.428 2.27.14.703-.288 1.257-.863 1.662-1.724l.477-1.014-5.27-2.48z" fill="#FF8F8F"/><defs><clipPath id="clip0"><path fill="#fff" transform="translate(48.837 65.836)" d="M0 0h32v32H0z"/></clipPath></defs></svg>
